Numix/scalable/status/appointment-missed-symbolic.svg

<?xml version="1.0" encoding="UTF-8" standalone="no"?>
<!-- Created with Inkscape (http://www.inkscape.org/) -->

<svg
   xmlns:dc="http://purl.org/dc/elements/1.1/"
   xmlns:cc="http://creativecommons.org/ns#"
   xmlns:rdf="http://www.w3.org/1999/02/22-rdf-syntax-ns#"
   xmlns:svg="http://www.w3.org/2000/svg"
   xmlns="http://www.w3.org/2000/svg"
   xmlns:sodipodi="http://sodipodi.sourceforge.net/DTD/sodipodi-0.dtd"
   xmlns:inkscape="http://www.inkscape.org/namespaces/inkscape"
   sodipodi:docname="appointment-missed-symbolic.svg"
   inkscape:export-filename="/home/sam/dev/RESOURCES/gnome-icon-theme-symbolic/src/gnome-stencils.png"
   inkscape:export-xdpi="90"
   inkscape:export-ydpi="90"
   height="16"
   id="svg7384"
   version="1.1"
   inkscape:version="0.91 r13725"
   width="16">
  <metadata
     id="metadata90">
    <rdf:RDF>
      <cc:Work
         rdf:about="">
        <dc:format>image/svg+xml</dc:format>
        <dc:type
           rdf:resource="http://purl.org/dc/dcmitype/StillImage" />
        <dc:title>elementary Symbolic Icon Theme</dc:title>
      </cc:Work>
    </rdf:RDF>
  </metadata>
  <sodipodi:namedview
     inkscape:bbox-nodes="true"
     inkscape:bbox-paths="true"
     bordercolor="#101010"
     borderopacity="1"
     inkscape:current-layer="layer9"
     inkscape:cx="6.5737495"
     inkscape:cy="7.9627187"
     gridtolerance="10"
     inkscape:guide-bbox="true"
     guidetolerance="10"
     id="namedview88"
     inkscape:object-nodes="true"
     inkscape:object-paths="false"
     objecttolerance="10"
     pagecolor="#ffffff"
     inkscape:pageopacity="0"
     inkscape:pageshadow="2"
     showborder="true"
     showgrid="true"
     showguides="true"
     inkscape:snap-bbox="true"
     inkscape:snap-bbox-edge-midpoints="true"
     inkscape:snap-bbox-midpoints="false"
     inkscape:snap-global="true"
     inkscape:snap-grids="true"
     inkscape:snap-nodes="true"
     inkscape:snap-others="false"
     inkscape:snap-to-guides="true"
     inkscape:window-height="704"
     inkscape:window-maximized="1"
     inkscape:window-width="1366"
     inkscape:window-x="0"
     inkscape:window-y="27"
     inkscape:zoom="45.254834">
    <inkscape:grid
       dotted="false"
       empspacing="4"
       enabled="true"
       id="grid4866"
       originx="0"
       originy="0"
       snapvisiblegridlinesonly="true"
       spacingx="1px"
       spacingy="1px"
       type="xygrid"
       visible="true" />
    <inkscape:grid
       color="#000000"
       dotted="true"
       empcolor="#000000"
       empopacity="0.25098039"
       empspacing="4"
       enabled="true"
       id="grid13609"
       opacity="0.1254902"
       originx="0"
       originy="0"
       snapvisiblegridlinesonly="true"
       spacingx="0.5px"
       spacingy="0.5px"
       type="xygrid"
       visible="true" />
  </sodipodi:namedview>
  <title
     id="title9167">elementary Symbolic Icon Theme</title>
  <defs
     id="defs7386" />
  <g
     inkscape:groupmode="layer"
     id="layer9"
     inkscape:label="status"
     style="display:inline"
     transform="translate(-473.0004,401.9276)">
    <path
       style="opacity:0.4;fill:#bebebe;fill-opacity:1;fill-rule:nonzero;stroke:none;stroke-width:4;stroke-linecap:square;stroke-linejoin:miter;stroke-miterlimit:4;stroke-dasharray:none;stroke-dashoffset:0;stroke-opacity:1"
       d="m 481.5004,-396.9276 c -0.277,0 -0.5,0.223 -0.5,0.5 l 0,2.5 -1.5,0 c -0.277,0 -0.5,0.223 -0.5,0.5 0,0.277 0.223,0.5 0.5,0.5 l 2,0 c 0.277,0 0.5,-0.223 0.5,-0.5 l 0,-3 c 0,-0.277 -0.223,-0.5 -0.5,-0.5 z"
       id="rect4149"
       inkscape:connector-curvature="0" />
    <path
       style="color:#000000;font-style:normal;font-variant:normal;font-weight:normal;font-stretch:normal;font-size:medium;line-height:normal;font-family:sans-serif;text-indent:0;text-align:start;text-decoration:none;text-decoration-line:none;text-decoration-style:solid;text-decoration-color:#000000;letter-spacing:normal;word-spacing:normal;text-transform:none;direction:ltr;block-progression:tb;writing-mode:lr-tb;baseline-shift:baseline;text-anchor:start;white-space:normal;clip-rule:nonzero;display:inline;overflow:visible;visibility:visible;opacity:0.4;isolation:auto;mix-blend-mode:normal;color-interpolation:sRGB;color-interpolation-filters:linearRGB;solid-color:#000000;solid-opacity:1;fill:#bebebe;fill-opacity:1;fill-rule:nonzero;stroke:none;stroke-width:2;stroke-linecap:square;stroke-linejoin:miter;stroke-miterlimit:4;stroke-dasharray:none;stroke-dashoffset:0;stroke-opacity:1;color-rendering:auto;image-rendering:auto;shape-rendering:auto;text-rendering:auto;enable-background:accumulate"
       d="M 8,1 C 4.14585,1 1,4.14585 1,8 c 0,3.85414 3.14585,7 7,7 3.85415,0 7,-3.14586 7,-7 C 15,7.3053736 14.893223,6.6343422 14.703125,6 L 12.580078,6 C 12.84618,6.6124699 13,7.2865949 13,8 13,10.77326 10.77327,13 8,13 5.22673,13 3,10.77326 3,8 3,5.22673 5.22673,3 8,3 8.7133863,3 9.3875428,3.1518799 10,3.4179688 L 10,1.296875 C 9.3651276,1.10643 8.6952843,1 8,1 Z"
       transform="translate(473.0004,-401.9276)"
       id="path4152"
       inkscape:connector-curvature="0"
       sodipodi:nodetypes="ssssccssssccs" />
    <path
       inkscape:connector-curvature="0"
       d="m 484.0004,-401.9276 1.5,0 1,1 1,-1 1.5,0 0,1.5 -1,1 1,1 0,1.5 -1.5,0 -1,-1 -1,1 -1.5,0 0,-1.5 1,-1 -1,-1 z"
       id="path3761-2-3-5-4-8-9-8-0-1-7-8"
       sodipodi:nodetypes="ccccccccccccccccc"
       style="color:#bebebe;display:inline;overflow:visible;visibility:visible;fill:#bebebe;fill-opacity:1;stroke:none;stroke-width:2;marker:none" />
  </g>
  <g
     inkscape:groupmode="layer"
     id="layer10"
     inkscape:label="devices"
     style="display:inline"
     transform="translate(-473.0004,401.9276)" />
  <g
     inkscape:groupmode="layer"
     id="layer11"
     inkscape:label="apps"
     transform="translate(-473.0004,401.9276)" />
  <g
     inkscape:groupmode="layer"
     id="layer13"
     inkscape:label="places"
     style="display:inline"
     transform="translate(-473.0004,401.9276)" />
  <g
     inkscape:groupmode="layer"
     id="layer14"
     inkscape:label="mimetypes"
     transform="translate(-473.0004,401.9276)" />
  <g
     inkscape:groupmode="layer"
     id="layer15"
     inkscape:label="emblems"
     style="display:inline"
     transform="translate(-473.0004,401.9276)" />
  <g
     inkscape:groupmode="layer"
     id="g71291"
     inkscape:label="emotes"
     style="display:inline"
     transform="translate(-473.0004,401.9276)" />
  <g
     inkscape:groupmode="layer"
     id="g4953"
     inkscape:label="categories"
     style="display:inline"
     transform="translate(-473.0004,401.9276)" />
  <g
     inkscape:groupmode="layer"
     id="layer12"
     inkscape:label="actions"
     style="display:inline"
     transform="translate(-473.0004,401.9276)" />
</svg>

<!-- Created with Inkscape (http://www.inkscape.org/) -->
<svg xmlns="http://www.w3.org/2000/svg" viewBox="0 0 16 16">
 <g transform="translate(-473.0004,401.9276)" style="display:inline">
  <path d="m 481.5 -396.93 c -0.277 0 -0.5 0.223 -0.5 0.5 l 0 2.5 -1.5 0 c -0.277 0 -0.5 0.223 -0.5 0.5 0 0.277 0.223 0.5 0.5 0.5 l 2 0 c 0.277 0 0.5 -0.223 0.5 -0.5 l 0 -3 c 0 -0.277 -0.223 -0.5 -0.5 -0.5 z" style="fill:#bebebe;opacity:0.4;fill-opacity:1;stroke:none;fill-rule:nonzero"/>
  <path d="m 8 1 c -3.854 0 -7 3.146 -7 7 c 0 3.854 3.146 7 7 7 3.854 0 7 -3.146 7 -7 c 0 -0.695 -0.107 -1.366 -0.297 -2 l -2.123 0 c 0.266 0.612 0.42 1.287 0.42 2 0 2.773 -2.227 5 -5 5 -2.773 0 -5 -2.227 -5 -5 0 -2.773 2.227 -5 5 -5 0.713 0 1.388 0.152 2 0.418 l 0 -2.121 c -0.635 -0.19 -1.305 -0.297 -2 -0.297" transform="translate(473.0004,-401.9276)" mix-blend-mode="normal" isolation="auto" white-space="normal" solid-opacity="1" solid-color="#000000" style="visibility:visible;shape-rendering:auto;color-interpolation-filters:linearRGB;fill:#bebebe;opacity:0.4;image-rendering:auto;fill-opacity:1;stroke:none;color:#000;fill-rule:nonzero;color-rendering:auto;color-interpolation:sRGB"/>
  <path d="m 484 -401.93 1.5 0 1 1 1 -1 1.5 0 0 1.5 -1 1 1 1 0 1.5 -1.5 0 -1 -1 -1 1 -1.5 0 0 -1.5 1 -1 -1 -1 z" style="visibility:visible;fill:#bebebe;fill-opacity:1;stroke:none;color:#bebebe"/>
 </g>
</svg>
